X:6
T:Bezit laouen evit ato
M:3/8
L:1/8
K:C
CEG|GE G|Ac A|G2G|FA F|EG E|E3|D2z|CEG|GE G|Ac A|
G2G|FA F|EG E|D3|!shortphrase!C2 G|GF E|A2G|cB A|G3|CE G|
cA G|^F3|G3||CEG|GE G|Ac A|G2G|cG E|FA F|EF D|C3||
